flutter/assets/toolbar/recv.svg

<svg width="8" height="8" viewBox="0 0 8 8" fill="none" xmlns="http://www.w3.org/2000/svg">
<path d="M6 8C6.55228 8 7 7.55228 7 7C7 6.44772 6.55228 6 6 6V8ZM1 7H0C0 7.55228 0.447715 8 1 8V7ZM2 2C2 1.44772 1.55228 1 1 1C0.447715 1 0 1.44772 0 2H2ZM7.70711 1.70711C8.09763 1.31658 8.09763 0.683417 7.70711 0.292893C7.31658 -0.097631 6.68342 -0.097631 6.29289 0.292893L7.70711 1.70711ZM6 6H1V8H6V6ZM2 7V2H0V7H2ZM1.70711 7.70711L7.70711 1.70711L6.29289 0.292893L0.292893 6.29289L1.70711 7.70711Z" fill="#021C36"/>
</svg>

<svg width="8" height="8" version="1.1" viewBox="0 0 2.1167 2.1167" xml:space="preserve" xmlns="http://www.w3.org/2000/svg"><g transform="translate(-85.997 -120.9)"><g transform="matrix(.26458 0 0 .26458 85.997 120.9)" fill="none"><path d="m6 8c0.55228 0 1-0.44772 1-1s-0.44772-1-1-1zm-5-1h-1c0 0.55228 0.44772 1 1 1zm1-5c0-0.55228-0.44772-1-1-1-0.55228 0-1 0.44772-1 1zm5.7071-0.29289c0.39052-0.39053 0.39052-1.0237 0-1.4142-0.39053-0.39052-1.0237-0.39052-1.4142 0zm-1.7071 4.2929h-5v2h5zm-4 1v-5h-2v5zm-0.29289 0.70711 6-6-1.4142-1.4142-6 6z" fill="#021c36"/></g></g></svg>
